X:75
T:Jimher'a Polka
R:polka
Z:id:hn-polka-77
M:2/4
L:1/8
K:D
f>f ef/e/|dB/A/ GB|cd eB|AF EF|FE D2|d>B AF|G2 G2:|
|:c/ d/a/b/a/ gd|gf e/g/f/e/|fa ge|ec ef/g/|de gg|a ab/a/|ef/e/ dB|A/F/A/d/ ef|af/f/ gb|ab ag|fa f2|1 fd cA:|2 A2 A2||
|:g2 e>f|gf e>d|ce fe|f/a/e/f/ af|ed BA|eA ed|c/e/f/e/ dB|AF A2:|
|:cA B2|EG/A/ BA|df/e/ cd|G>A Ed|ec Bc/d/|ed B/c/d|B/A/A/c/ BA|1 GB/B/:iA:|2 A>B A>B||
`

%
